packages/icons/src/components/Icon/assets/small-solid/music.svg

<svg width="16" height="16" viewBox="0 0 16 16" fill="none" xmlns="http://www.w3.org/2000/svg">
<path d="M12.2381 2.65481C12.2381 2.45968 12.1511 2.27473 12.0008 2.15033C11.8504 2.02593 11.6525 1.97506 11.4608 2.01157L4.91137 3.25908C4.60253 3.31791 4.37909 3.58793 4.37909 3.90232V6.08498C4.37909 6.10081 4.37966 6.11657 4.3808 6.13224V9.62226C4.3808 10.0414 4.08287 10.4015 3.67109 10.4799L3.16534 10.5762C2.35086 10.7314 1.7616 11.4435 1.7616 12.2726C1.7616 13.3559 2.74743 14.1717 3.81157 13.969L4.33793 13.8687C5.12328 13.7191 5.69147 13.0325 5.69147 12.233V10.8864C5.69147 10.8738 5.69111 10.8613 5.6904 10.8488V6.62651L10.9288 5.62872V8.37502C10.9288 8.79421 10.6309 9.15424 10.2191 9.23267L9.70913 9.32981C8.89465 9.48494 8.30539 10.197 8.30539 11.0262C8.30539 12.1094 9.29122 12.9252 10.3554 12.7225L10.6398 12.6683C11.5674 12.4917 12.2384 11.6807 12.2384 10.7366L12.2381 2.65481Z" fill="#727683"/>
</svg>

<svg xmlns="http://www.w3.org/2000/svg" width="16" height="16" fill="none" viewBox="0 0 16 16">
    <path fill="#727683" d="M12.238 2.655a.655.655 0 0 0-.777-.643L4.91 3.259a.655.655 0 0 0-.532.643v2.183q0 .024.002.047v3.49c0 .42-.298.78-.71.858l-.506.096a1.727 1.727 0 0 0 .647 3.393l.526-.1a1.665 1.665 0 0 0 1.353-1.636V6.627l5.238-.998v2.746c0 .42-.298.78-.71.858l-.51.097a1.727 1.727 0 1 0 .646 3.393l.285-.055a1.966 1.966 0 0 0 1.598-1.931z"/>
</svg>
